X:1
T:James Gibb editions
T:Tua Jesu dilectio - Palestrina
%%score { 1 | 2 } 3
L:1/8
Q:1/4=84
M:4/4
K:F
V:1 treble-8 nm="Tenor I" snm="T"
V:2 treble-8 
V:3 bass nm="Bass" snm="B"
V:1
"^Tua Jesu dilectio""^G. P. da Palestrina\n(1524-1594)""^andantino" z4!p!"^Jesu dulcis memoria vv.15-16" G4 | %1
w: Tu-|
w: Qui|
 d4 f4 |"^," e2 f2 d3 c |"^," c8 |[M:4/4][K:treble-8]!f! f4 d4 | (B3 c d4) | d2 d2 c3 B | B4 z4 | %8
w: a Je-|su di- le- cti-|o,|Gra- ta|men\- * *|tis re- fe- cti-|o,|
w: te gu-|stant e- su- ri-|unt,|Qui bi-|bunt * *|ad huc si- ti-|unt,|
!f! B4 A2 d2 |[M:4/4][K:treble-8]!>(! c2 B2 A3!>)! A |"^," A4!p! B4 | d4"^," B2 A2- | A2 G2 ^F3 G | %13
w: Re- plet si-|ne fa- sti- di-|o, Dans|fa- mem de\-|* si- de- ri-|
w: De- si- de-|ra- re ne- sci-|unt, ni-|si quem Je\-|* sum di- li-|
 !fermata!G8 |] %14
w: o.|
w: gunt.|
V:2
!p! G4 d4 | B4 A4- |"^," A2 A2 B3 A | A8- |[M:4/4][K:treble-8]"^," A4!f! f4 | d4 B4 | %6
w: Tu- a|Je- su|* di- le- cti-|o,|* Gra-|ta men-|
w: Qui te|gu- stant|* e- su- ri-|unt,|* Qui|bi- bunt|
"^," B2 B2 A3 B | B4 z4 |!f! d4 c2 B2 |[M:4/4][K:treble-8]!>(! A2 B2 c3!>)! c |"^," c4!p! d4 | %11
w: tis re- fe- cti-|o,|Re- plet si-|ne fa- sti- di-|o, Dans|
w: ad huc si- ti-|unt,|De- si- de-|ra- re ne- sci-|unt, ni-|
 f4"^," d2 c2- | c2 B2 A3 G | !fermata!G8 |] %14
w: fa- mem de\-|* si- de- ri-|o.|
w: si quem Je\-|* sum di- li-|gunt.|
V:3
 z8 |!p! G,,4 D,2 D,2 |"^," ^C,2 D,2 B,,3 F,, | F,,4!f! F,4 |[M:4/4] D,4 B,,4- | B,,4"^," G,,4 | %6
w: |Tu- a Je-|su di- le- cti-|o, Gra-|ta men\-|* tis|
w: |Qui te gu-|stant e- su- ri-|unt, Qui|bi- bunt|* ad|
 B,,4 F,,3 B,, | B,,4 z4 |!f! B,,4 F,2 B,,2 |[M:4/4]!>(! F,2 G,2 F,3!>)! F, |"^," F,4!p! B,,4 | %11
w: re- fe- cti-|o,|Re- plet si-|ne fa- sti- di-|o, Dans|
w: huc si- ti-|unt,|De- si- de-|ra- re ne- sci-|unt, ni-|
 B,,4"^," B,,2 F,2- | F,2 G,2 D,3 D, | !fermata!G,,8 |] %14
w: fa- mem de\-|* si- de- ri-|o.|
w: si quem Je\-|* sum di- li-|gunt.|

